!!!!SEGMENT: pl-kk--kk-i-487--007_anonim--urzad-zbawienia-ludzkiego.krn
!!!cenid: 18xx:1362
!!!COM: Anonim
!!!COM-rismid: pe30004985
!!!CDT:
!!!CNT:
!!!OTL: Urząd zbawienia ludzkiego
!!!PDT:
!!!AGN: Sacred
!!!SMS-siglum: PL-Kk
!!!SMS-shelfmark: Kk.I.487
!!!SMS-shelfwork: 007 W
!!!SMS-variant:
!!!SMS-altvar:
!!!NIFC-rismid: 1001141053
!!!URL-scan: http://repozytorium.nifc.pl/skany/pl-kk-nut--i-487
!!!ONB-nifc:
!!!key:
**kern	**text	**text	**kern	**text	**text	**kern	**text	**text	**kern
*part4	*part4	*part4	*part3	*part3	*part3	*part2	*part2	*part2	*part1
*staff4	*staff4	*staff4	*staff3	*staff3	*staff3	*staff2	*staff2	*staff2	*staff1
*Iempty	*	*	*Itenor	*	*	*Ialto	*	*	*Isoprn
*I"Bas	*	*	*I"Tenor	*	*	*I"Alt.	*	*	*I"Sopran
*I'B	*	*	*I'T	*	*	*I'A	*	*	*I'S
*clefF4	*	*	*clefC4	*	*	*clefC3	*	*	*clefC1
*k[f#c#]	*	*	*k[f#c#]	*	*	*k[f#c#]	*	*	*k[f#c#]
*g:	*	*	*g:	*	*	*g:	*	*	*g:
*M4/4	*	*	*M4/4	*	*	*M4/4	*	*	*M4/4
*met(c)	*	*	*met(c)	*	*	*met(c)	*	*	*met(c)
=1	=1	=1	=1	=1	=1	=1	=1	=1	=1
*all\right	*	*	*all\right	*	*	*all\right	*	*	*
!	!	!	!	!	!	!	!	!	!LO:TX:t=P:problem:brak partii sopranu
4D\	U-	Pan	4F#/	U-	Pan	4d\	U-	Pan	1ryy
4D\	-rząd	Bóg	4F#/	-rząd	Bóg	4d\	-rząd	Bóg	.
4D\	zba-	w Trój-	4G/	zba-	w Trój-	4d\	zba-	w Troj-	.
4D\	-wie-	-cy	4F#/	-wie-	-cy	4d\	-wie-	-cy	.
=2	=2	=2	=2	=2	=2	=2	=2	=2	=2
4BB/	-nia	swię-	4F#/	-nia	swię-	4d\	-nia	swię-	1ryy
4F#\	ludz-	-tej	4A#X\	ludz-	-tej	4e\	ludz-	-tej	.
4G\	-kie-	ra-	4B\	-kie-	ra-	4d\	-kie-	ra-	.
4F#;\	-go	-dził	4d;\	-go	-dził	4d;\	-go	-dził	.
=3	=3	=3	=3	=3	=3	=3	=3	=3	=3
4F#\	po-	by	4An\	po-	by	4d\	po-	By	1ryy
4F#\	-trze-	swiat	4cn\	-trze-	swiat	(8e-X\L	-trze-	swiat	.
.	.	.	.	.	.	8d\J)	.	.	.
4G\	-bo-	zba-	4B\	-bo-	zba-	4d\	-bo-	zba-	.
4F#\	-wał	-wił	4B\	-wał	-wił	4d#X\	-wał	-wił	.
!LO:LB:g=original	!	!	!	!	!	!LO:LB:g=original	!	!	!
=4	=4	=4	=4	=4	=4	=4	=4	=4	=4
4E\	pil-	grze-	4B\	pil-	grze-	4e\	pil-	grze-	1ryy
4A\	-nie	-chy	4A\	-nie	-chy	4dn\	-no	-chy	.
!	!	!	!LO:LB:g=original	!	!	!	!	!	!
4AA/	te-	zgła-	4G/	te-	zgła-	4c#\	te-	zgła-	.
4D;\	-go	-dził	4F#;/	-go	-dził	4d;\	-go	-dził	.
=5	=5	=5	=5	=5	=5	=5	=5	=5	=5
4D\	by	przez	4F#/	by	przez	4d\	by	przez	1ryy
4D\	u-	wcie-	4F#/	u-	wcie-	4d\	u-	wcie-	.
4G\	-pa-	-le-	4G/	-pa-	-le-	4d\	-pa-	-le-	.
4F#\	-dek	-nie	4A\	-dek	-nie	4d\	-dek	-nie	.
=6	=6	=6	=6	=6	=6	=6	=6	=6	=6
4F#\	Bóg	Sy-	4A\	Bóg	Sy-	4d\	Bóg	Sy-	1ryy
4G\	na-	-na	4G/	na-	-na	4d\	na-	-na	.
4E\	-pra-	swe-	4G/	-pra-	swe-	4c#X\	-pra-	swe-	.
4F#;\	-wił	-go	4A;\	-wił	-go	4d;\	-wił	-go	.
=7	=7	=7	=7	=7	=7	=7	=7	=7	=7
4D\	czło-	spa-	4A\	czło-	spra-	4f#\	czło-	spra-	1ryy
4F#\	-wie-	-wą	4A\	-wie-	-wą	4f#\	-wie-	-wą	.
4G\	-ka	Du-	4d\	-ka	Du-	4g\	-ka	Du-	.
4D\	grze-	-cha	4d\	grze-	-cha	4f#\	grze-	-cha	.
!LO:LB:g=original	!	!	!LO:LB:g=original	!	!	!LO:LB:g=original	!	!	!
=8	=8	=8	=8	=8	=8	=8	=8	=8	=8
(4G\	-szne-	naj-	(4d\	-szne-	naj-	(4g\	-szne-	naj-	1ryy
8D#X\)	.	.	8B\)	.	.	8f#\)	.	.	.
8E\	-go	-swię-	8B\	-go	-swię-	8e\	-go	-swię-	.
(4A\	zba-	-trze-	(4A\	zba-	-trze-	(4d\	zba-	-trze-	.
4AA/)	.	.	4G/)	[[-wił]]	.	4c#\)	.	.	.
=9	=9	=9	=9	=9	=9	=9	=9	=9	=9
4D\	-wił	-go	4F#/	-wił.	-go	4d\	-wił	-go	1ryy
4r	.	.	4r	.	.	4r	.	.	.
2r	.	.	2r	.	.	2r	.	.	.
==	==	==	==	==	==	==	==	==	==
*-	*-	*-	*-	*-	*-	*-	*-	*-	*-
!!!system-decoration: [(s1,s2,s3,s4)]
!!!AIN: 1 alto 1 empty 1 soprn 1 tenor
!!!ENC: Marta Lawrence
!!!END: 2021-01-19
!!!ENC: Tomasz Grochalski
!!!END: 2021-01-10
